public/work/imported/logos/moves.svg

<svg xmlns="http://www.w3.org/2000/svg" viewBox="122.79 386.17 798.88 294.5"><path fill="#0a0a0a" fill-rule="evenodd" d="M841.5 393.455c-9.9.715-20.25 1.639-23 2.053-14.123 2.129-26.486 8.618-32.795 17.212-8.042 10.957-15.263 36.091-16.364 56.968l-.643 12.187-3.849.651c-4.293.725-4.591 1.413-2.193 5.071 2.102 3.209 9.259 6.843 16.344 8.3 4.331.891 33.06 2.986 42.295 3.084.988.01 2.9 1.124 4.25 2.474 2.055 2.054 2.455 3.421 2.455 8.388 0 6.648-3.935 21.489-7.271 27.425-3.602 6.409-11.146 9.74-17.392 7.678-5.412-1.786-6.547-7.335-4.225-20.669.612-3.512.88-6.618.597-6.902-.807-.806-50.883 2.396-51.766 3.31-1.831 1.895-4.202 17.511-4.3 28.315-.083 9.059.255 12.165 1.59 14.631 5.747 10.614 18.16 13.401 50.978 11.443 34.732-2.072 44.672-3.603 55.507-8.551 7.09-3.238 14.345-10.278 17.772-17.245 7.479-15.206 13.54-40.051 13.841-56.735l.169-9.39 4.244-.637 4.245-.637-1.479-2.861c-3.85-7.443-11.61-9.828-37.51-11.524-24.151-1.581-26.674-2.238-27.602-7.188-.94-5.01.262-14.743 2.744-22.218 3.753-11.303 13.134-18.345 18.858-14.157 2.403 1.759 2.494 2.221 2.337 11.949l-.163 10.12 4.663.003c10.13.007 46.708-2.248 47.433-2.924.423-.395 1.698-5.412 2.834-11.149 2.2-11.115 2.14-22.655-.14-27.089-2.399-4.664-7.429-8.902-12.437-10.477-6.849-2.154-27.58-2.531-50.027-.909m-149.285 9.51c-46.357 2.588-84.674 5.117-85.149 5.62-.476.503-8.059 17.115-16.853 36.915-14.402 32.428-16.234 36.03-18.468 36.304-2.457.3-2.485.212-3.091-9.5-.337-5.392-.907-21.616-1.268-36.054-.62-24.809-.759-26.25-2.539-26.25-2.748 0-52.317 3.154-52.512 3.342-.091.087.134 15.571.5 34.409l.665 34.251-3.781-.001c-2.492-.001-3.984.527-4.376 1.547-.732 1.907.94 104.068 1.716 104.844.306.307 15.359-.218 33.451-1.167l32.893-1.725 22.578-50.999 22.578-50.999 4.943-1.049 4.943-1.049 14.021-31.415c7.711-17.279 14.126-30.757 14.255-29.952.128.805-2.6 14.963-6.063 31.463l-6.297 30-4.162.565c-2.289.31-4.438.84-4.775 1.178-.958.958-21.653 98.861-21.03 99.485.579.578 116.82-5.643 117.487-6.288.617-.597 5.983-27.903 5.565-28.324-.209-.211-14.387.384-31.507 1.323-17.119.939-31.353 1.481-31.63 1.203-.505-.505 9.364-47.649 10.137-48.422.227-.226 13.831-1.226 30.233-2.223 16.401-.997 29.895-1.854 29.986-1.905.09-.051.96-3.467 1.933-7.592 1.695-7.19 1.887-7.5 4.651-7.5 4.949 0 6.751-1.61 6.751-6.035 0-2.526-.454-3.951-1.25-3.927-.687.021-13.85.653-29.25 1.404s-28.161 1.21-28.357 1.021c-.354-.34 8.668-43.607 9.204-44.143.154-.154 14.426-1.031 31.716-1.95 17.29-.918 31.594-1.797 31.785-1.952.346-.279 6.116-27.225 6.14-28.668.006-.413-.325-.692-.738-.621-.413.072-38.678 2.247-85.035 4.836M436.5 415.585c-22.527 1.617-32.468 3.671-43.158 8.919-13.545 6.65-20.708 17.344-28.85 43.075L359.928 482h-3.464c-1.905 0-3.47-.337-3.478-.75s2.754-13.925 6.138-30.029 5.935-29.495 5.67-29.76c-.526-.526-68.801 3.213-69.388 3.8-.198.198-6.407 12.933-13.798 28.3L268.17 481.5l-4.888.795-4.888.795-3.747 7.572c-2.06 4.165-3.89 7.407-4.067 7.205-.176-.202-.624-3.567-.997-7.479l-.677-7.112 4.13-.554c2.271-.305 4.291-.716 4.489-.914.362-.362-3.478-54.094-3.895-54.512-.556-.555-67.622 3.363-68.246 3.987-.387.387-2.422 8.693-4.523 18.46a9507 9507 0 0 1-5.409 25.007l-1.588 7.25h-4.413c-3.753 0-4.492.336-4.94 2.25-3.027 12.918-26.36 124.234-26.096 124.498.751.751 50.732-2.501 51.472-3.349.432-.494 2.992-10.799 5.689-22.899l4.904-22 2.623 21.78c1.444 11.979 2.907 22.063 3.253 22.409.345.346 10.194.1 21.886-.545s22.268-1.167 23.502-1.159c1.904.013 3.526-2.524 10.697-16.735 4.649-9.212 8.477-16.258 8.506-15.656s-1.298 7.763-2.949 15.915-2.788 15.035-2.526 15.296c.506.506 52.469-2.407 53.02-2.972.349-.358 24.517-113.83 24.511-115.083-.001-.413 1.735-.75 3.859-.75h3.863l-1.866 7.75c-3.866 16.06-8.84 40.122-10.389 50.25-1.919 12.553-2.225 33.823-.572 39.763 1.669 5.999 6.217 10.732 12.912 13.438 5.481 2.214 6.684 2.294 32.69 2.174 47.106-.219 64.868-4.362 78.213-18.244 9.786-10.178 18.831-35.783 28.255-79.98 1.667-7.821 3.032-14.371 3.032-14.554 0-.184 1.865-.584 4.144-.89 2.279-.305 4.454-1.057 4.833-1.669 1.647-2.665 4.266-29.027 3.879-39.038-.342-8.833-.799-11.208-2.881-14.961-6.689-12.059-21.789-14.66-66.475-11.454M432 447.59c-1.925.832-5.208 3.175-7.295 5.207-3.773 3.676-4.371 5.145-10.045 24.703-1.077 3.715-1.495 4.065-5.861 4.908l-4.7.909-2.654 11.091c-4.248 17.755-8.312 39.231-9.638 50.931-1.153 10.176-1.108 11.062.733 14.5 4.361 8.144 17.183 7.524 25.244-1.221 3.052-3.31 4.719-6.484 6.704-12.762 3.64-11.512 8.789-32.199 12.131-48.745l2.799-13.854 4.541-.878 4.541-.879 1.876-10.9c3.144-18.271.392-24.661-10.576-24.561-2.365.022-5.875.72-7.8 1.551M288 657.5V675h10v-9.07l10.238.285c9.359.261 10.264.457 10.539 2.285.978 6.502.976 6.5 6.242 6.5H330v-4.453c0-2.449-.51-5.572-1.133-6.939-.896-1.966-.791-3.341.5-6.568 2.075-5.184 2.066-8.499-.032-12.05-2.651-4.488-5.054-4.99-23.882-4.99H288zm50.348-6.844c.359 5.86.652 13.735.652 17.5V675h38.25l-.625-3.125c-.344-1.719-.625-3.744-.625-4.5 0-1.099-2.723-1.375-13.57-1.375-13.5 0-13.567-.012-13.25-2.25.309-2.176.725-2.259 12.57-2.531l12.25-.281v-6.876l-12.25-.281c-11.579-.266-12.266-.396-12.55-2.382-.272-1.907.328-2.16 6.5-2.743 3.74-.353 9.838-.645 13.55-.649L376 648v-8h-38.304zm49.769-9.025c-3.542 2.481-5.131 7.436-4.999 15.587.172 10.536.893 12.873 4.783 15.494C391.028 674.819 392.377 675 405 675c12.611 0 13.975-.182 17.102-2.283 2.814-1.89 3.45-2.993 3.701-6.415.254-3.451-.039-4.242-1.772-4.792-3.079-.977-7.833.369-9.448 2.675-1.275 1.82-2.29 1.991-9.952 1.671-5.228-.218-9.035-.859-9.831-1.656-.746-.746-1.3-3.606-1.3-6.714 0-7.629 1.32-8.664 11.284-8.843 6.692-.12 8.358.18 10.188 1.834 2.106 1.903 9.085 2.799 10.532 1.352.344-.343.313-2.287-.068-4.32-1.192-6.354-4.395-7.501-20.963-7.505-11.355-.003-14.472.307-16.356 1.627m49.552.414c-3.365 2.648-4.657 7.518-4.663 17.589l-.006 8.133 4.003 3.617 4.003 3.616 14.747-.015c16.351-.016 18.369-.558 21.967-5.897 1.924-2.855 2.28-4.696 2.28-11.786 0-15.669-2.295-17.302-24.315-17.302-14.015 0-15.651.186-18.016 2.045M487 657.5V675h5.5c5.41 0 5.5-.048 5.5-2.918 0-5.848.404-6.082 10.477-6.082h9.263l1.26 4.5 1.26 4.5H530v-4.809c0-2.645-.633-5.674-1.406-6.731-1.163-1.592-1.184-2.358-.12-4.442 2.182-4.275 2.74-8.84 1.528-12.511-2.037-6.174-3.276-6.507-24.225-6.507H487zm51 0V675h18.777c20.019 0 20.993-.21 25.44-5.469 2.301-2.723 2.505-20.993.267-23.951-3.909-5.166-5.758-5.566-25.734-5.573L538 640zm54 0V675h11v-35h-11zm19 0V675h9.938l.281-12.169.281-12.169 9.866 12.169L641.232 675H658v-8.346c0-4.591-.294-12.488-.653-17.55l-.654-9.204-4.096.3-4.097.3-.719 9.5c-.395 5.225-.845 10.455-1 11.622-.219 1.655-2.371-.481-9.781-9.708l-9.5-11.829-8.25-.043L611 640zm58.524-15.115c-3.428 3.428-4.865 9.807-4.149 18.415 1.099 13.205 2.715 14.2 23.06 14.2 14.446 0 14.552-.017 17.594-2.75 2.724-2.447 3.127-3.548 3.661-10l.6-7.25H687v2.902c0 2.802.205 2.925 6 3.598 4.059.471 6 1.137 6 2.06 0 3.849-19.988 4.2-22.029.386-1.067-1.994-1.276-9.207-.365-12.603.532-1.982 1.358-2.189 10.236-2.556 8.251-.342 9.959-.137 11.722 1.407 1.287 1.125 3.643 1.806 6.25 1.806 3.958 0 4.186-.159 4.186-2.918 0-7.928-2.796-9.082-21.996-9.082-14.574 0-15.177.082-17.48 2.385m51.701-.381c-3.96 2.414-5.544 6.147-4.709 11.092 1.128 6.676 3.308 7.7 17.187 8.075 12.966.35 15.818 1.292 13.256 4.379-2.032 2.447-18.294 1.745-20.207-.873-.987-1.351-2.356-1.739-5.292-1.5-3.764.307-3.975.504-4.264 3.966-.256 3.071.161 3.975 2.654 5.75 2.658 1.893 4.334 2.107 16.489 2.107 7.442 0 14.642-.422 16-.939 4.542-1.727 6.661-5.002 6.661-10.295 0-6.025-3.105-9.739-8.205-9.815-8.858-.13-22.995-1.751-23.995-2.751-3.084-3.084 13.165-4.398 20.095-1.625 2.164.866 5.211 1.428 6.77 1.25 2.361-.271 2.886-.849 3.14-3.459.235-2.422-.308-3.616-2.385-5.25-2.44-1.92-3.953-2.116-16.305-2.112-11.843.003-14.041.263-16.89 2M298.193 653.25c.191 2.64.78 4.212 1.557 4.15.688-.055 5.059-.168 9.715-.25 7.354-.13 8.605-.412 9.535-2.15.76-1.421.76-2.579 0-4-.961-1.796-2.094-2-11.093-2h-10.022zm146.694-1.5c-1.102 2.851-.725 11.745.552 13.022.4.4 5.432.728 11.181.728 11.896 0 12.348-.275 12.351-7.5.003-9.172.235-9-12.112-9H445.95zM499 652.856v3.856l8.124.678c8.798.734 12.876-.601 12.876-4.213 0-3.419-2.123-4.177-11.7-4.177H499zm50 4.644v8.5l4.75-.007c2.612-.004 7.788-.294 11.5-.645l6.751-.637 1.058-3.93c1.316-4.886.134-8.847-3.138-10.516-1.397-.713-6.333-1.242-11.671-1.25L549 649z"/></svg>

<svg xmlns="http://www.w3.org/2000/svg" width="100%" height="100%" viewBox="122.79 386.17 798.88 294.50" version="1.1">
	<path d="M 841.500 393.455 C 831.600 394.170, 821.250 395.094, 818.500 395.508 C 804.377 397.637, 792.014 404.126, 785.705 412.720 C 777.663 423.677, 770.442 448.811, 769.341 469.688 L 768.698 481.875 764.849 482.526 C 760.556 483.251, 760.258 483.939, 762.656 487.597 C 764.758 490.806, 771.915 494.440, 779 495.897 C 783.331 496.788, 812.060 498.883, 821.295 498.981 C 822.283 498.991, 824.195 500.105, 825.545 501.455 C 827.600 503.509, 828 504.876, 828 509.843 C 828 516.491, 824.065 531.332, 820.729 537.268 C 817.127 543.677, 809.583 547.008, 803.337 544.946 C 797.925 543.160, 796.790 537.611, 799.112 524.277 C 799.724 520.765, 799.992 517.659, 799.709 517.375 C 798.902 516.569, 748.826 519.771, 747.943 520.685 C 746.112 522.580, 743.741 538.196, 743.643 549 C 743.560 558.059, 743.898 561.165, 745.233 563.631 C 750.980 574.245, 763.393 577.032, 796.211 575.074 C 830.943 573.002, 840.883 571.471, 851.718 566.523 C 858.808 563.285, 866.063 556.245, 869.490 549.278 C 876.969 534.072, 883.030 509.227, 883.331 492.543 L 883.500 483.153 887.744 482.516 L 891.989 481.879 890.510 479.018 C 886.660 471.575, 878.900 469.190, 853 467.494 C 828.849 465.913, 826.326 465.256, 825.398 460.306 C 824.458 455.296, 825.660 445.563, 828.142 438.088 C 831.895 426.785, 841.276 419.743, 847 423.931 C 849.403 425.690, 849.494 426.152, 849.337 435.880 L 849.174 446 853.837 446.003 C 863.967 446.010, 900.545 443.755, 901.270 443.079 C 901.693 442.684, 902.968 437.667, 904.104 431.930 C 906.304 420.815, 906.244 409.275, 903.964 404.841 C 901.565 400.177, 896.535 395.939, 891.527 394.364 C 884.678 392.210, 863.947 391.833, 841.500 393.455 M 692.215 402.965 C 645.858 405.553, 607.541 408.082, 607.066 408.585 C 606.590 409.088, 599.007 425.700, 590.213 445.500 C 575.811 477.928, 573.979 481.530, 571.745 481.804 C 569.288 482.104, 569.260 482.016, 568.654 472.304 C 568.317 466.912, 567.747 450.688, 567.386 436.250 C 566.766 411.441, 566.627 410, 564.847 410 C 562.099 410, 512.530 413.154, 512.335 413.342 C 512.244 413.429, 512.469 428.913, 512.835 447.751 L 513.500 482.002 509.719 482.001 C 507.227 482, 505.735 482.528, 505.343 483.548 C 504.611 485.455, 506.283 587.616, 507.059 588.392 C 507.365 588.699, 522.418 588.174, 540.510 587.225 L 573.403 585.500 595.981 534.501 L 618.559 483.502 623.502 482.453 L 628.445 481.404 642.466 449.989 C 650.177 432.710, 656.592 419.232, 656.721 420.037 C 656.849 420.842, 654.121 435, 650.658 451.500 L 644.361 481.500 640.199 482.065 C 637.910 482.375, 635.761 482.905, 635.424 483.243 C 634.466 484.201, 613.771 582.104, 614.394 582.728 C 614.973 583.306, 731.214 577.085, 731.881 576.440 C 732.498 575.843, 737.864 548.537, 737.446 548.116 C 737.237 547.905, 723.059 548.500, 705.939 549.439 C 688.820 550.378, 674.586 550.920, 674.309 550.642 C 673.804 550.137, 683.673 502.993, 684.446 502.220 C 684.673 501.994, 698.277 500.994, 714.679 499.997 C 731.080 499, 744.574 498.143, 744.665 498.092 C 744.755 498.041, 745.625 494.625, 746.598 490.500 C 748.293 483.310, 748.485 483, 751.249 483 C 756.198 483, 758 481.390, 758 476.965 C 758 474.439, 757.546 473.014, 756.750 473.038 C 756.063 473.059, 742.900 473.691, 727.500 474.442 C 712.100 475.193, 699.339 475.652, 699.143 475.463 C 698.789 475.123, 707.811 431.856, 708.347 431.320 C 708.501 431.166, 722.773 430.289, 740.063 429.370 C 757.353 428.452, 771.657 427.573, 771.848 427.418 C 772.194 427.139, 777.964 400.193, 777.988 398.750 C 777.994 398.337, 777.663 398.058, 777.250 398.129 C 776.837 398.201, 738.572 400.376, 692.215 402.965 M 436.500 415.585 C 413.973 417.202, 404.032 419.256, 393.342 424.504 C 379.797 431.154, 372.634 441.848, 364.492 467.579 L 359.928 482 356.464 482 C 354.559 482, 352.994 481.663, 352.986 481.250 C 352.978 480.837, 355.740 467.325, 359.124 451.221 C 362.507 435.118, 365.059 421.726, 364.794 421.461 C 364.268 420.935, 295.993 424.674, 295.406 425.261 C 295.208 425.459, 288.999 438.194, 281.608 453.561 L 268.170 481.500 263.282 482.295 L 258.394 483.090 254.647 490.662 C 252.587 494.827, 250.757 498.069, 250.580 497.867 C 250.404 497.665, 249.956 494.300, 249.583 490.388 L 248.906 483.276 253.036 482.722 C 255.307 482.417, 257.327 482.006, 257.525 481.808 C 257.887 481.446, 254.047 427.714, 253.630 427.296 C 253.074 426.741, 186.008 430.659, 185.384 431.283 C 184.997 431.670, 182.962 439.976, 180.861 449.743 C 178.760 459.509, 176.326 470.762, 175.452 474.750 L 173.864 482 169.451 482 C 165.698 482, 164.959 482.336, 164.511 484.250 C 161.484 497.168, 138.151 608.484, 138.415 608.748 C 139.166 609.499, 189.147 606.247, 189.887 605.399 C 190.319 604.905, 192.879 594.600, 195.576 582.500 L 200.480 560.500 203.103 582.280 C 204.547 594.259, 206.010 604.343, 206.356 604.689 C 206.701 605.035, 216.550 604.789, 228.242 604.144 C 239.934 603.499, 250.510 602.977, 251.744 602.985 C 253.648 602.998, 255.270 600.461, 262.441 586.250 C 267.090 577.038, 270.918 569.992, 270.947 570.594 C 270.976 571.196, 269.649 578.357, 267.998 586.509 C 266.347 594.660, 265.210 601.544, 265.472 601.805 C 265.978 602.311, 317.941 599.398, 318.492 598.833 C 318.841 598.475, 343.009 485.003, 343.003 483.750 C 343.002 483.337, 344.738 483, 346.862 483 L 350.725 483 348.859 490.750 C 344.993 506.810, 340.019 530.872, 338.470 541 C 336.551 553.553, 336.245 574.823, 337.898 580.763 C 339.567 586.762, 344.115 591.495, 350.810 594.201 C 356.291 596.415, 357.494 596.495, 383.500 596.375 C 430.606 596.156, 448.368 592.013, 461.713 578.131 C 471.499 567.953, 480.544 542.348, 489.968 498.151 C 491.635 490.330, 493 483.780, 493 483.597 C 493 483.413, 494.865 483.013, 497.144 482.707 C 499.423 482.402, 501.598 481.650, 501.977 481.038 C 503.624 478.373, 506.243 452.011, 505.856 442 C 505.514 433.167, 505.057 430.792, 502.975 427.039 C 496.286 414.980, 481.186 412.379, 436.500 415.585 M 432 447.590 C 430.075 448.422, 426.792 450.765, 424.705 452.797 C 420.932 456.473, 420.334 457.942, 414.660 477.500 C 413.583 481.215, 413.165 481.565, 408.799 482.408 L 404.099 483.317 401.445 494.408 C 397.197 512.163, 393.133 533.639, 391.807 545.339 C 390.654 555.515, 390.699 556.401, 392.540 559.839 C 396.901 567.983, 409.723 567.363, 417.784 558.618 C 420.836 555.308, 422.503 552.134, 424.488 545.856 C 428.128 534.344, 433.277 513.657, 436.619 497.111 L 439.418 483.257 443.959 482.379 L 448.500 481.500 450.376 470.600 C 453.520 452.329, 450.768 445.939, 439.800 446.039 C 437.435 446.061, 433.925 446.759, 432 447.590 M 288 657.500 L 288 675 293 675 L 298 675 298 670.465 L 298 665.930 308.238 666.215 C 317.597 666.476, 318.502 666.672, 318.777 668.500 C 319.755 675.002, 319.753 675, 325.019 675 L 330 675 330 670.547 C 330 668.098, 329.490 664.975, 328.867 663.608 C 327.971 661.642, 328.076 660.267, 329.367 657.040 C 331.442 651.856, 331.433 648.541, 329.335 644.990 C 326.684 640.502, 324.281 640, 305.453 640 L 288 640 288 657.500 M 338.348 650.656 C 338.707 656.516, 339 664.391, 339 668.156 L 339 675 358.125 675 L 377.250 675 376.625 671.875 C 376.281 670.156, 376 668.131, 376 667.375 C 376 666.276, 373.277 666, 362.430 666 C 348.930 666, 348.863 665.988, 349.180 663.750 C 349.489 661.574, 349.905 661.491, 361.750 661.219 L 374 660.938 374 657.500 L 374 654.062 361.750 653.781 C 350.171 653.515, 349.484 653.385, 349.200 651.399 C 348.928 649.492, 349.528 649.239, 355.700 648.656 C 359.440 648.303, 365.538 648.011, 369.250 648.007 L 376 648 376 644 L 376 640 356.848 640 L 337.696 640 338.348 650.656 M 388.117 641.631 C 384.575 644.112, 382.986 649.067, 383.118 657.218 C 383.290 667.754, 384.011 670.091, 387.901 672.712 C 391.028 674.819, 392.377 675, 405 675 C 417.611 675, 418.975 674.818, 422.102 672.717 C 424.916 670.827, 425.552 669.724, 425.803 666.302 C 426.057 662.851, 425.764 662.060, 424.031 661.510 C 420.952 660.533, 416.198 661.879, 414.583 664.185 C 413.308 666.005, 412.293 666.176, 404.631 665.856 C 399.403 665.638, 395.596 664.997, 394.800 664.200 C 394.054 663.454, 393.500 660.594, 393.500 657.486 C 393.500 649.857, 394.820 648.822, 404.784 648.643 C 411.476 648.523, 413.142 648.823, 414.972 650.477 C 417.078 652.380, 424.057 653.276, 425.504 651.829 C 425.848 651.486, 425.817 649.542, 425.436 647.509 C 424.244 641.155, 421.041 640.008, 404.473 640.004 C 393.118 640.001, 390.001 640.311, 388.117 641.631 M 437.669 642.045 C 434.304 644.693, 433.012 649.563, 433.006 659.634 L 433 667.767 437.003 671.384 L 441.006 675 455.753 674.985 C 472.104 674.969, 474.122 674.427, 477.720 669.088 C 479.644 666.233, 480 664.392, 480 657.302 C 480 641.633, 477.705 640, 455.685 640 C 441.670 640, 440.034 640.186, 437.669 642.045 M 487 657.500 L 487 675 492.500 675 C 497.910 675, 498 674.952, 498 672.082 C 498 666.234, 498.404 666, 508.477 666 L 517.740 666 519 670.500 L 520.260 675 525.130 675 L 530 675 530 670.191 C 530 667.546, 529.367 664.517, 528.594 663.460 C 527.431 661.868, 527.410 661.102, 528.474 659.018 C 530.656 654.743, 531.214 650.178, 530.002 646.507 C 527.965 640.333, 526.726 640, 505.777 640 L 487 640 487 657.500 M 538 657.500 L 538 675 556.777 675 C 576.796 675, 577.770 674.790, 582.217 669.531 C 584.518 666.808, 584.722 648.538, 582.484 645.580 C 578.575 640.414, 576.726 640.014, 556.750 640.007 L 538 640 538 657.500 M 592 657.500 L 592 675 597.500 675 L 603 675 603 657.500 L 603 640 597.500 640 L 592 640 592 657.500 M 611 657.500 L 611 675 615.969 675 L 620.938 675 621.219 662.831 L 621.500 650.662 631.366 662.831 L 641.232 675 649.616 675 L 658 675 658 666.654 C 658 662.063, 657.706 654.166, 657.347 649.104 L 656.693 639.900 652.597 640.200 L 648.500 640.500 647.781 650 C 647.386 655.225, 646.936 660.455, 646.781 661.622 C 646.562 663.277, 644.410 661.141, 637 651.914 L 627.500 640.085 619.250 640.042 L 611 640 611 657.500 M 669.524 642.385 C 666.096 645.813, 664.659 652.192, 665.375 660.800 C 666.474 674.005, 668.090 675, 688.435 675 C 702.881 675, 702.987 674.983, 706.029 672.250 C 708.753 669.803, 709.156 668.702, 709.690 662.250 L 710.290 655 698.645 655 L 687 655 687 657.902 C 687 660.704, 687.205 660.827, 693 661.500 C 697.059 661.971, 699 662.637, 699 663.560 C 699 667.409, 679.012 667.760, 676.971 663.946 C 675.904 661.952, 675.695 654.739, 676.606 651.343 C 677.138 649.361, 677.964 649.154, 686.842 648.787 C 695.093 648.445, 696.801 648.650, 698.564 650.194 C 699.851 651.319, 702.207 652, 704.814 652 C 708.772 652, 709 651.841, 709 649.082 C 709 641.154, 706.204 640, 687.004 640 C 672.430 640, 671.827 640.082, 669.524 642.385 M 721.225 642.004 C 717.265 644.418, 715.681 648.151, 716.516 653.096 C 717.644 659.772, 719.824 660.796, 733.703 661.171 C 746.669 661.521, 749.521 662.463, 746.959 665.550 C 744.927 667.997, 728.665 667.295, 726.752 664.677 C 725.765 663.326, 724.396 662.938, 721.460 663.177 C 717.696 663.484, 717.485 663.681, 717.196 667.143 C 716.940 670.214, 717.357 671.118, 719.850 672.893 C 722.508 674.786, 724.184 675, 736.339 675 C 743.781 675, 750.981 674.578, 752.339 674.061 C 756.881 672.334, 759 669.059, 759 663.766 C 759 657.741, 755.895 654.027, 750.795 653.951 C 741.937 653.821, 727.800 652.200, 726.800 651.200 C 723.716 648.116, 739.965 646.802, 746.895 649.575 C 749.059 650.441, 752.106 651.003, 753.665 650.825 C 756.026 650.554, 756.551 649.976, 756.805 647.366 C 757.040 644.944, 756.497 643.750, 754.420 642.116 C 751.980 640.196, 750.467 640, 738.115 640.004 C 726.272 640.007, 724.074 640.267, 721.225 642.004 M 298.193 653.250 C 298.384 655.890, 298.973 657.462, 299.750 657.400 C 300.438 657.345, 304.809 657.232, 309.465 657.150 C 316.819 657.020, 318.070 656.738, 319 655 C 319.760 653.579, 319.760 652.421, 319 651 C 318.039 649.204, 316.906 649, 307.907 649 L 297.885 649 298.193 653.250 M 444.887 651.750 C 443.785 654.601, 444.162 663.495, 445.439 664.772 C 445.839 665.172, 450.871 665.500, 456.620 665.500 C 468.516 665.500, 468.968 665.225, 468.971 658 C 468.974 648.828, 469.206 649, 456.859 649 L 445.950 649 444.887 651.750 M 499 652.856 L 499 656.712 507.124 657.390 C 515.922 658.124, 520 656.789, 520 653.177 C 520 649.758, 517.877 649, 508.300 649 L 499 649 499 652.856 M 549 657.500 L 549 666 553.750 665.993 C 556.362 665.989, 561.538 665.699, 565.250 665.348 L 572.001 664.711 573.059 660.781 C 574.375 655.895, 573.193 651.934, 569.921 650.265 C 568.524 649.552, 563.588 649.023, 558.250 649.015 L 549 649 549 657.500" stroke="none" fill="#0a0a0a" fill-rule="evenodd"/>
</svg>
